X: 1688
T: Larry Lynch's Hornpipe   #2
R: hornpipe, reel
%S: s:2 b:14(7+7)
B: O'Neill's 1850 #1688
O: J.O'Neill
M: 4/4
L: 1/8
K: A
E2 \
|: A2c>A E>Ac>A | G>AB>G A2c2 |\
[1,3 d>fe>c d>cB>A | G>AB>G E>gd>B :|\
[2,4 d>ge>d c>AB>G | A2c2 A2 :: c>d \
| e>Ac>e a>gf>e |
| G>AB>c d>EF>G \
| A>EA>c d>cB>A | G>AB>G E2c>d |\
| e>Ac>e a>gf>e | f>Bd>f b>ag>f \
| e>ac>f e>dB>G | A2c2 A2 :|
